X:512
T:Polska efter Enninger
T:(SvL Skåne nr. 533)
S:efter John Enninger
R:Polska
Z:Steve Simpson, 2018-07-16
O:Höör, Skåne
B:John Enninger
B:Svenska Låtar Skåne
N:Upptecknad 1875 efter J. Bruun 1875 och sjungen av modern.
N:Jämför +
M:3/4
L:1/16
K:Dm
A2d2 d2^c2 c2A2 | A=B^cd e6 c2 | d2d^c d2e2 f2g2 | a2a2 gabg a4 | A2d2 d2^c2 c2A2 |$ 
A=B^cd e6 c2 | d2^c2 d2e2 f2ed | e2d^c d4 D4 ::S f2a2 f2a2 (ba)gf |$ e2g2 e2g2 (ag)fe :| 
(d^c)de (fe)fg (ab)ag | (fe)d^c e4 d4"^D.S." |]

